!!!COM:	Bach, Johann Sebastian
!!!OMV:	Oh how fleeting, oh how fading
!!!OTL:	Oh how fleeting, oh how fading
**kern	**fb	**kern	**kern	**kern
*part4	*part4	*part3	*part2	*part1
*staff4	*	*staff3	*staff2	*staff1
*I"Voice	*	*I"Voice	*I"Voice	*I"Voice
*I'V	*	*I'V	*I'V	*I'V
*clefF4	*	*clefGv2	*clefG2	*clefG2
*k[]	*	*k[]	*k[]	*k[]
*M4/4	*	*M4/4	*M4/4	*M4/4
=	=	=	=	=
4A	.	4c	4e	4a
4G#X	6	4B	4e	4b
4A	.	4A	4e	4cc
4AA;	.	4A;	4e;	4cc;
=3	=3	=3	=3	=3
4A	.	4A	4e	4cc
4Gn	.	4B	4g	4dd
4c	.	4c	4g	4ee
4C;	.	4c;	4g;	4ee;
=4	=4	=4	=4	=4
8cL	.	8cL	4g	4ee
8B	.	8d	.	.
8A	.	8c	[4cc	4ee
8GJ	.	8BJ	.	.
8F#XL	6 5	8AL	8cc]	4dd
8G#XJ	6 5	8B	4b	.
4A	9	8c	.	4cc
.	8	8eJ	8a	.
=5	=5	=5	=5	=5
4D	6 5	4fn	4a	4.b
4E	#	8eL	4g#X	.
.	.	8dJ	.	8a
2AA;	#	2c#X;	2e;	2a;
=6	=6	=6	=6	=6
8AAL	#	8c#XL	4a	4ee
8BB	.	8d	.	.
8C#X	6	8e	4a	4ee
8AAJ	.	8c#J	.	.
8DL	.	4d	4a	4ff
8CnJ	.	.	.	.
8BB-XL	5	4d	4b-X	4ff
8AAJ	.	.	.	.
=7	=7	=7	=7	=7
!!linebreak:original
8GGL	6 5 -	4d	4b-X	4ee
8EEJ	.	.	.	.
4AA	#	4c#X	8aL	4ee
.	.	.	8gJ	.
4D	4	4d	8gL	4dd
.	.	.	8eJ	.
4DD;	#	4A;	4f#X;	4dd;
=8	=8	=8	=8	=8
8GGL	.	8BL	4g	4dd
8AA	.	8cn	.	.
8BB	6	8d	4g	4dd
8GGJ	.	8BJ	.	.
8CL	.	4c	4g	4ee
8BB	.	.	.	.
8AA	.	4c	4a	4ee
8GGJ	.	.	.	.
=9	=9	=9	=9	=9
8FFL	6 5	4c	4a	4dd
8DDJ	.	.	.	.
4GG	.	4B	8gL	4dd
.	.	.	8fJ	.
4C	4	4c	8fL	4cc
.	.	.	8dJ	.
4CC;	3	4G;	4e;	4cc;
=10	=10	=10	=10	=10
4F	.	4A	4f	4cc
8EL	7 4 2	4A	4f	4dd
8DJ	.	.	.	.
8G#XL	6	4B	4e	4ee
8EJ	.	.	.	.
4A	4	4A	4e	8ddL
.	3	.	.	8ccJ
=11	=11	=11	=11	=11
4D#X	6 5	4A	4f#X	4b
4E	#	4G#X	8eL	4b
.	.	.	8dnJ	.
4A	4	4A	8dL	4a
.	.	.	8BJ	.
4AA;	#	4E;	4c#X;	4a;
=||	=||	=||	=||	=||
*-	*-	*-	*-	*-
!!!system-decoration: s1,s2,s3,s4
